X:1
T: Tulloch gorm
C:
R:Strathspey
Q: 128
K:G
M:4/4
L:1/16
|:c2|BG3 d3G c3=F A3c|BG3 d3G B3c dg3|BG3 d3G c3=F A3c|BG3 d3G c4 B2A2|
BG3 d3G c3=F A3c|BG3 d3G B3c dg3|BG3 d3G c3=F A3c|BG3 d3G ABc2 B2A2|
Gg3 d3g =f3=F A4 G3g dg3 Bg3 dg3|Gg3 d3g =f3=F A4|G3g d3g ABc2 B3A|
Gg3 d3g =f3=F A4|Gg3 d3g =fc3 f3g|agfe =fd3 c=F3 A4|g3d gab2 eg3 d2:|
